icons/src/scalable/default/status/audio-volume-muted-symbolic.svg

<?xml version="1.0" encoding="UTF-8" standalone="no"?>
<svg
   enable-background="new"
   viewBox="0 0 16 16"
   version="1.1"
   id="svg10"
   sodipodi:docname="audio-volume-muted-symbolic.svg"
   inkscape:version="1.1.2 (0a00cf5339, 2022-02-04)"
   xmlns:inkscape="http://www.inkscape.org/namespaces/inkscape"
   xmlns:sodipodi="http://sodipodi.sourceforge.net/DTD/sodipodi-0.dtd"
   xmlns="http://www.w3.org/2000/svg"
   xmlns:svg="http://www.w3.org/2000/svg">
  <defs
     id="defs14">
    <inkscape:path-effect
       effect="fillet_chamfer"
       id="path-effect1613"
       is_visible="true"
       lpeversion="1"
       satellites_param="F,0,0,1,0,1,0,1 @ F,0,0,1,0,1,0,1 @ F,0,0,1,0,1,0,1 @ F,0,0,1,0,1,0,1"
       unit="px"
       method="auto"
       mode="F"
       radius="1"
       chamfer_steps="1"
       flexible="false"
       use_knot_distance="true"
       apply_no_radius="true"
       apply_with_radius="true"
       only_selected="false"
       hide_knots="false" />
  </defs>
  <sodipodi:namedview
     id="namedview12"
     pagecolor="#ffffff"
     bordercolor="#666666"
     borderopacity="1.0"
     inkscape:pageshadow="2"
     inkscape:pageopacity="0.0"
     inkscape:pagecheckerboard="0"
     showgrid="false"
     inkscape:zoom="47.5625"
     inkscape:cx="8"
     inkscape:cy="7.9894875"
     inkscape:window-width="1920"
     inkscape:window-height="1020"
     inkscape:window-x="0"
     inkscape:window-y="32"
     inkscape:window-maximized="1"
     inkscape:current-layer="svg10"
     inkscape:object-paths="true"
     inkscape:snap-intersection-paths="true"
     inkscape:snap-smooth-nodes="true"
     inkscape:snap-midpoints="true" />
  <path
     id="path1258"
     style="fill:#565656;fill-opacity:0.34902;stroke-width:0.139475"
     d="M 8 1.0917969 C 7.8030614 1.0917969 7.6322192 1.1628425 7.4882812 1.3066406 L 3.7050781 5.0917969 L 0.7265625 5.0917969 C 0.5294845 5.0917969 0.36073494 5.1628425 0.21679688 5.3066406 C 0.07285879 5.4505787 1.8503717e-17 5.6214209 0 5.8183594 L 0 10.181641 C 0 10.37858 0.07285879 10.549561 0.21679688 10.693359 C 0.36087441 10.837297 0.52962397 10.910156 0.7265625 10.910156 L 3.7050781 10.910156 L 3.8867188 11.09375 L 8.7265625 6.2539062 L 8.7265625 1.8183594 C 8.7265625 1.6214209 8.6555174 1.4505787 8.5117188 1.3066406 C 8.367641 1.162842 8.197078 1.0917969 8 1.0917969 z M 14.701172 1.7207031 L 1.7207031 14.701172 A 1.0198193 1.0198193 0 0 0 3.1640625 14.701172 L 5.3300781 12.535156 L 7.4882812 14.693359 C 7.6322193 14.837157 7.8030615 14.910156 8 14.910156 C 8.197078 14.910156 8.3677807 14.837156 8.5117188 14.693359 C 8.6556567 14.54956 8.7265625 14.378579 8.7265625 14.181641 L 8.7265625 9.1386719 L 11.021484 6.84375 C 11.071016 6.8779255 11.120374 6.9128087 11.169922 6.9492188 C 11.298796 7.0439217 11.409062 7.1773584 11.5 7.3515625 C 11.59066 7.5259061 11.636719 7.7423899 11.636719 8 C 11.636719 8.2576101 11.590797 8.4740939 11.5 8.6484375 C 11.40906 8.8227811 11.298796 8.9559384 11.169922 9.0507812 C 11.041047 9.1454844 10.911799 9.2329993 10.783203 9.3125 C 10.654328 9.391861 10.546016 9.4859363 10.455078 9.5957031 C 10.364138 9.7057487 10.318359 9.8408591 10.318359 10 C 10.318359 10.20461 10.389406 10.377406 10.533203 10.517578 C 10.677001 10.657751 10.847983 10.726563 11.044922 10.726562 C 11.158454 10.726562 11.254343 10.707582 11.330078 10.669922 C 11.860501 10.457501 12.285374 10.103673 12.607422 9.6074219 C 12.929469 9.1113098 13.091797 8.5757523 13.091797 8 C 13.091797 7.4242477 12.929469 6.8867361 12.607422 6.3867188 C 12.456272 6.152142 12.282803 5.9488248 12.085938 5.7792969 L 13.101562 4.7636719 C 13.501584 5.1206142 13.826766 5.5413315 14.074219 6.0273438 C 14.388595 6.6447991 14.544922 7.303044 14.544922 8 C 14.544922 8.696956 14.388595 9.3532478 14.074219 9.9707031 C 13.759842 10.588298 13.322269 11.102639 12.761719 11.511719 C 12.610249 11.625391 12.322579 11.792046 11.898438 12.011719 C 11.60289 12.163328 11.455078 12.386094 11.455078 12.681641 C 11.455078 12.87858 11.526124 13.04956 11.669922 13.193359 C 11.813999 13.337436 11.98875 13.408203 12.193359 13.408203 C 12.284299 13.408203 12.378233 13.389224 12.476562 13.351562 C 13.53699 12.904408 14.389248 12.192002 15.033203 11.210938 C 15.677159 10.23001 16 9.1591757 16 8 C 16 6.8408243 15.677159 5.7705472 15.033203 4.7890625 C 14.77066 4.3891348 14.47245 4.0357893 14.140625 3.7246094 L 14.701172 3.1640625 A 1.0198193 1.0198193 0 0 0 14.701172 1.7207031 z M 12.181641 2.5898438 C 11.984703 2.5898438 11.813999 2.6627025 11.669922 2.8066406 C 11.526123 2.9505787 11.455078 3.1214209 11.455078 3.3183594 C 11.455078 3.3836415 11.464101 3.4437044 11.478516 3.5019531 L 12.367188 2.6132812 C 12.305721 2.5985311 12.243024 2.5898438 12.181641 2.5898438 z " />
</svg>

<svg version="1.1" viewBox="0 0 16 16" xmlns="http://www.w3.org/2000/svg">
 <path d="m8 1.0918c-0.19694 0-0.36778 0.071046-0.51172 0.21484l-3.7832 3.7852h-2.9785c-0.19708 0-0.36583 0.071046-0.50977 0.21484-0.14394 0.14394-0.2168 0.31478-0.2168 0.51172v4.3633c0 0.19694 0.072859 0.36792 0.2168 0.51172 0.14408 0.14394 0.31283 0.2168 0.50977 0.2168h2.9785l0.18164 0.18359 4.8398-4.8398v-4.4355c0-0.19694-0.071045-0.36778-0.21484-0.51172-0.14408-0.1438-0.31464-0.21484-0.51172-0.21484zm6.7012 0.62891-12.98 12.98a1.0198 1.0198 0 0 0 1.4434 0l2.166-2.166 2.1582 2.1582c0.14394 0.1438 0.31478 0.2168 0.51172 0.2168 0.19708 0 0.36778-0.073 0.51172-0.2168 0.14394-0.1438 0.21484-0.31478 0.21484-0.51172v-5.043l2.2949-2.2949c0.049532 0.034176 0.09889 0.069059 0.14844 0.10547 0.12887 0.094703 0.23914 0.22814 0.33008 0.40234 0.09066 0.17434 0.13672 0.39083 0.13672 0.64844s-0.045922 0.47409-0.13672 0.64844c-0.09094 0.17434-0.2012 0.3075-0.33008 0.40234-0.12888 0.094703-0.25812 0.18222-0.38672 0.26172-0.12888 0.079361-0.23719 0.17344-0.32812 0.2832-0.09094 0.11005-0.13672 0.24516-0.13672 0.4043 0 0.20461 0.071047 0.37741 0.21484 0.51758 0.1438 0.14017 0.31478 0.20898 0.51172 0.20898 0.11353 0 0.20942-0.01898 0.28516-0.05664 0.53042-0.21242 0.9553-0.56625 1.2773-1.0625 0.32205-0.49611 0.48438-1.0317 0.48438-1.6074s-0.16233-1.1133-0.48438-1.6133c-0.15115-0.23458-0.32462-0.43789-0.52148-0.60742l1.0156-1.0156c0.40002 0.35694 0.7252 0.77766 0.97266 1.2637 0.31438 0.61746 0.4707 1.2757 0.4707 1.9727s-0.15633 1.3532-0.4707 1.9707c-0.31438 0.61759-0.75195 1.1319-1.3125 1.541-0.15147 0.11367-0.43914 0.28033-0.86328 0.5-0.29555 0.15161-0.44336 0.37438-0.44336 0.66992 0 0.19694 0.071046 0.36792 0.21484 0.51172 0.14408 0.14408 0.31883 0.21484 0.52344 0.21484 0.09094 0 0.18487-0.018979 0.2832-0.056641 1.0604-0.44715 1.9127-1.1596 2.5566-2.1406 0.64396-0.98093 0.9668-2.0518 0.9668-3.2109s-0.32284-2.2295-0.9668-3.2109c-0.26254-0.39993-0.56075-0.75327-0.89258-1.0645l0.56055-0.56055a1.0198 1.0198 0 0 0 0-1.4434zm-2.5195 0.86914c-0.19694 0-0.36764 0.072859-0.51172 0.2168-0.1438 0.14394-0.21484 0.31478-0.21484 0.51172 0 0.065282 0.009023 0.12534 0.023438 0.18359l0.88867-0.88867c-0.061467-0.01475-0.12416-0.023437-0.18555-0.023437z" fill="#565656" fill-opacity=".34902" stroke-width=".13948"/>
</svg>
